archdroid-icon-theme/Archdroid-Shamrock/actions/scalable/xfce-wm-stick.svg

<svg xmlns="http://www.w3.org/2000/svg" fill="#00E676" viewBox="0 0 48 48"><path d="m24 4c-11.03 0-20 8.97-20 20 0 11.03 8.97 20 20 20 11.03 0 20-8.97 20-20 0-11.03-8.97-20-20-20m0 4c8.82 0 16 7.18 16 16 0 8.82-7.18 16-16 16-8.82 0-16-7.18-16-16 0-8.82 7.18-16 16-16"/></svg>

<?xml version="1.0" encoding="UTF-8" standalone="no"?>
<svg
   xmlns:dc="http://purl.org/dc/elements/1.1/"
   xmlns:cc="http://creativecommons.org/ns#"
   xmlns:rdf="http://www.w3.org/1999/02/22-rdf-syntax-ns#"
   xmlns:svg="http://www.w3.org/2000/svg"
   xmlns="http://www.w3.org/2000/svg"
   xmlns:sodipodi="http://sodipodi.sourceforge.net/DTD/sodipodi-0.dtd"
   xmlns:inkscape="http://www.inkscape.org/namespaces/inkscape"
   fill="#00E676"
   width="48"
   height="48"
   viewBox="0 0 48 48"
   id="svg2"
   version="1.1"
   inkscape:version="0.91 r13725"
   sodipodi:docname="xfce-wm-stick.svg">
  <metadata
     id="metadata10">
    <rdf:RDF>
      <cc:Work
         rdf:about="">
        <dc:format>image/svg+xml</dc:format>
        <dc:type
           rdf:resource="http://purl.org/dc/dcmitype/StillImage" />
      </cc:Work>
    </rdf:RDF>
  </metadata>
  <defs
     id="defs8" />
  <sodipodi:namedview
     pagecolor="#ffffff"
     bordercolor="#666666"
     borderopacity="1"
     objecttolerance="10"
     gridtolerance="10"
     guidetolerance="10"
     inkscape:pageopacity="0"
     inkscape:pageshadow="2"
     inkscape:window-width="1366"
     inkscape:window-height="713"
     id="namedview6"
     showgrid="false"
     inkscape:zoom="10.73600260416667"
     inkscape:cx="24"
     inkscape:cy="23.99999999999999"
     inkscape:window-x="0"
     inkscape:window-y="30"
     inkscape:window-maximized="1"
     inkscape:current-layer="svg2" />
  <path
     d="M 24 4 C 12.97 4 4 12.97 4 24 C 4 35.03 12.97 44 24 44 C 35.03 44 44 35.03 44 24 C 44 12.97 35.03 4 24 4 z M 24 8 C 32.82 8 40 15.18 40 24 C 40 32.82 32.82 40 24 40 C 15.18 40 8 32.82 8 24 C 8 15.18 15.18 8 24 8 z "
     id="path4142" />
</svg>
